X:59
T:Pigeon On The Gate
N:Reel      Allan's   #59
N:Trad/Anon.
B:Allan's Irish Fiddler (pub. Mozart Allen,  Glascow) date unknown
Z:FROM ALLAN'S TO NOTEWORTHY, FROM NOTEWORTHY TO ABC, MIDI AND .TXT BY VINCE
BRENNAN Dec. 2002 (HTTP://WWW.SOSYOURMOM.COM)
N:Page 15
I:abc2nwc
M:2/2
L:1/8
K:D
((3cde)|(fB)  ((3BBB) fB^gB|f2(f^g) fecd|(eA)  ((3AAA) eAfA|eAeg fece|
(fd)  ((3BBB) fB^gB|f2(f^g) fecB|ABce c'abc'|afec B2:|
|: ((3cde)|(fb)  ((3bbb) ac'ba|fbbc' d'bc'b|fef^g abaf|efab c'aba|
(fb)  ((3bbb) ac'ba|fbbc' d'bc'a|fef^g abaf|ecAc B2:|
